X: 1123
T:Branle
O:France
A:Bourbonnais
R:Bourre  2 temps
M:2/4
L:1/8
Q:220
K:G
B2 BA/2B/2|cB AG|B>A GF|GA BG|
B2 BA/2B/2|cB AG|B>A GF|G4:|
d2 dc/2d/2|ed cB|c2 cB/2c/2|dc BA|
B2 BA/2B/2|cB AG|B>A GF|1GA BG:|2G4||
